common/src/main/resources/icons/other/xmlComment.svg

<svg xmlns="http://www.w3.org/2000/svg" width="16" height="16" data-big="true"><path fill="#9575CD" fill-rule="evenodd" d="M5.995 10.953.737 8.522V7.334l5.258-2.431v1.265L2.057 7.917l3.938 1.76zm2.277-1.595-.418-4.873V4.1h1.562v.385l-.407 4.873zM7.909 11.8v-1.518h1.463V11.8zm3.003-2.717V7.774h3.256v1.309z"/></svg>

<!--
  - The MIT License (MIT)
  -
  - Copyright (c) 2015-2024 Elior "Mallowigi" Boukhobza
  -
  - Permission is hereby granted, free of charge, to any person obtaining a copy
  - of this software and associated documentation files (the "Software"), to deal
  - in the Software without restriction, including without limitation the rights
  - to use, copy, modify, merge, publish, distribute, sublicense, and/or sell
  - copies of the Software, and to permit persons to whom the Software is
  - furnished to do so, subject to the following conditions:
  -
  - The above copyright notice and this permission notice shall be included in all
  - copies or substantial portions of the Software.
  -
  - THE SOFTWARE IS PROVIDED "AS IS", WITHOUT WARRANTY OF ANY KIND, EXPRESS OR
  - IMPLIED, INCLUDING BUT NOT LIMITED TO THE WARRANTIES OF MERCHANTABILITY,
  - FITNESS FOR A PARTICULAR PURPOSE AND NONINFRINGEMENT. IN NO EVENT SHALL THE
  - AUTHORS OR COPYRIGHT HOLDERS BE LIABLE FOR ANY CLAIM, DAMAGES OR OTHER
  - LIABILITY, WHETHER IN AN ACTION OF CONTRACT, TORT OR OTHERWISE, ARISING FROM,
  - OUT OF OR IN CONNECTION WITH THE SOFTWARE OR THE USE OR OTHER DEALINGS IN THE
  - SOFTWARE.
  -->

<svg data-big="true" xmlns="http://www.w3.org/2000/svg" width="16px" height="16px" viewBox="0 0 16 16">
  <path fill="#9575CD" fill-rule="evenodd"
        d="M5.995,10.953 L0.737,8.522 L0.737,7.334 L5.995,4.903 L5.995,6.168 L2.057,7.917 L5.995,9.677 L5.995,10.953 Z M8.272,9.358 L7.854,4.485 L7.854,4.1 L9.416,4.1 L9.416,4.485 L9.009,9.358 L8.272,9.358 Z M7.909,11.8 L7.909,10.282 L9.372,10.282 L9.372,11.8 L7.909,11.8 Z M10.912,9.083 L10.912,7.774 L14.168,7.774 L14.168,9.083 L10.912,9.083 Z"/>
</svg>
